svg/Filled/arrow-forward-circle_filled.svg

<svg viewBox="0 0 24 24" xmlns="http://www.w3.org/2000/svg" width="24" height="24"><path fill-rule="evenodd" d="M12 1a11 11 0 1 1 0 22 11 11 0 0 1 0-22m1 6.1a1 1 0 0 0-1.4 1.41l.07.08 2.4 2.4H8.1L8 11a1 1 0 0 0 0 2h6.1l-2.43 2.44-.07.08a1 1 0 0 0 1.4 1.4l.08-.07 3-3q.29-.27.5-.53.19-.2.33-.48l.08-.2a2 2 0 0 0 0-1.24l-.08-.2q-.15-.29-.32-.49l-.51-.53-3-3z" clip-rule="evenodd"/></svg>

<svg viewBox="0 0 24 24" xmlns="http://www.w3.org/2000/svg" width="24" height="24"><path fill-rule="evenodd" d="M12 1a11 11 0 1 1 0 22 11 11 0 0 1 0-22M13 7.1A1 1 0 0 0 11.6 8.51L14.07 10.99L8 11A1 1 0 0 0 8 13L14.1 13L11.6 15.52A1 1 0 0 0 13 16.92L16.08 13.85Q16.37 13.58 16.58 13.32Q16.77 13.12 16.91 12.84L16.99 12.64A2 2 0 0 0 16.99 11.4L16.91 11.2Q16.76 10.91 16.59 10.71L13.08 7.18Z" clip-rule="evenodd"/></svg>
